X:13
T:Bourre ronde la Brande d'Ardente
R:Bourre  2 temps
O:France
A:Berry
C:Trad.
I:abc2nwc
M:2/4
L:1/16
Q:1/4=120
K:G
P:A
"G"d3B G2B2 | "Am"c6g2| "D"f3d e2f2 | "G"g3a b2g2|d3B G2B2 | "Am"c6g2 | "D"f3d e2f2|[1 "G"g8:|[2 "G"g4gfed|]
P:B
K:C
"C"c4e4|g3f "G"d4 | e3f d2e2 | "C"c2B2 "G"A2"C"G2 | c4e4 | g3f "G"d4 | e3f d2B2|[1 "C"c4cGAB:|[2 "C"c8|:
P:A' (variante)
K:G
"G"dedB G2B2 | "Am"c6g2| "D"f3d e2f2 | "G"gfga b2g2|dedB G2B2 | "Am"c6g2 | "D"f3d e2f2|[1 "G"g8:|[2 "G"g4gfed|]
%%footer $D   Galouvielle-MBe 2007 \nBourre  2 temps (France)
